X:3
T:Aberdeen Hunt
R:Strathspey
B:The Athole Collection
M:C
L:1/8
K:G Minor
D<G G>A B>de>=e|f<d c>B A<fA<F|D<G G>A B>c d<^f|
g<d f>A G2G:|
d|g/a/b g>d B<dg<b|a/b/f/=e/ f<c A>cf>a|g/a/b f>d B<d b>g|
f<d f>A G2 G>d|g/a/b g>d B<dg<b|a/g/f/=e/ f>c A>c f<a|
g<b^f>a g>=ed>c|d>D d/c/B/A/ B<GG||

